X: 27594
T: Monvara Bridge
R: polka
M: 2/4
K: Gmajor
GB B>A|GB BG|FA cd|ed B/c/B/A/|
GB B/c/B/A/|GB BG|F>A cA|AG G:|
dg g>e|dB B>G|FA cd|ed B>c|
dg g/a/g/e/|dB BG|F>A cA|AG G:|
dg- ga|b2 ag|eg ed|dB B>c|
dg ga|bc'/b/ ag|1 e/f/g ed|g2 g:|2 e/f/g dB|G3||

